Obsidian/actions/16s/im-qq.svg

<svg height="16" viewBox="0 0 16 16" width="16" xmlns="http://www.w3.org/2000/svg"><path d="m8.0019531 1c-2.5260408 0-4.5742187 2.0410149-4.5742187 4.5605469 0 .4432428.065019.8721817.1835937 1.2773437-.5759977.4613976-2.81035608 2.4601404-1.890625 5.0527344 0 0 .7769557-.06585 1.4160157-1.244141.1940717.754089.5558771 1.437226 1.0488281 2.009766-.7221066.212101-1.2128907.623678-1.2128907 1.095703 0 .688997 1.0444087 1.248047 2.3300782 1.248047.8726565 0 1.6309392-.256796 2.0292968-.636719.2193855.028782.4410337.046875.6679688.046875.2273792 0 .4494716-.018093.6679688-.046875.3992459.379923 1.1585935.636719 2.0312502.636719 1.286113 0 2.330078-.559493 2.330078-1.248047 0-.471582-.490784-.883602-1.212891-1.095703.492507-.57254.854757-1.255677 1.048828-2.009766.638616 1.177848 1.416016 1.244141 1.416016 1.244141.921063-2.5930368-1.315071-4.5917796-1.890625-5.0527344.119019-.405162.185547-.8341009.185547-1.2773437 0-2.5190892-2.04729-4.5605469-4.5742189-4.5605469z" fill="#bebebe"/></svg>

<svg xmlns="http://www.w3.org/2000/svg" width="16" height="16" viewBox="0 0 16 16">
 <defs>
  <style id="current-color-scheme" type="text/css">
   .ColorScheme-Text { color:#bebebe; } .ColorScheme-Highlight { color:#4285f4; }
  </style>
 </defs>
 <path style="fill:currentColor" class="ColorScheme-Text" d="M 8.0019531 1 C 5.4759123 1 3.4277344 3.0410149 3.4277344 5.5605469 C 3.4277344 6.0037897 3.4927534 6.4327286 3.6113281 6.8378906 C 3.0353304 7.2992882 0.80097202 9.298031 1.7207031 11.890625 C 1.7207031 11.890625 2.4976588 11.824775 3.1367188 10.646484 C 3.3307905 11.400573 3.6925959 12.08371 4.1855469 12.65625 C 3.4634403 12.868351 2.9726562 13.279928 2.9726562 13.751953 C 2.9726562 14.44095 4.0170649 15 5.3027344 15 C 6.1753909 15 6.9336736 14.743204 7.3320312 14.363281 C 7.5514167 14.392063 7.7730649 14.410156 8 14.410156 C 8.2273792 14.410156 8.4494716 14.392063 8.6679688 14.363281 C 9.0672147 14.743204 9.8265623 15 10.699219 15 C 11.985332 15 13.029297 14.440507 13.029297 13.751953 C 13.029297 13.280371 12.538513 12.868351 11.816406 12.65625 C 12.308913 12.08371 12.671163 11.400573 12.865234 10.646484 C 13.50385 11.824332 14.28125 11.890625 14.28125 11.890625 C 15.202313 9.2975882 12.966179 7.2988454 12.390625 6.8378906 C 12.509644 6.4327286 12.576172 6.0037897 12.576172 5.5605469 C 12.576172 3.0414577 10.528882 1 8.0019531 1 z"/>
</svg>
